!!!COM:	Compere, Loyset
!!!CDT:	~1445///-1518/08/16
!!!OTL:	Vostre bargeronette m'amiette
!!!AGN:	Song; Chanson
!!!SCT:	Com3048
!!!SCA:	Com3048
!!!voices:	4
**kern	**kern	**kern	**kern
*staff4	*staff3	*staff2	*staff1
*Ivox	*Ivox	*Ivox	*Ivox
*I"Bassus	*I"Tenor	*I"Altus	*I"Superius
*I'B	*I'T	*I'A	*I'S
*clefF4	*clefGv2	*clefGv2	*clefG2
*k[b-]	*k[b-]	*k[b-]	*k[b-]
*M2/1	*M2/1	*M2/1	*M2/1
*met(C|)	*met(C|)	*met(C|)	*met(C|)
=1-	=1-	=1-	=1-
0r	0r	1c	0r
.	.	2c	.
.	.	2d	.
=2	=2	=2	=2
1C	0r	2.e	0r
.	.	4f	.
2C	.	2g	.
2C	.	2g	.
=3	=3	=3	=3
2.D	1F	2.f	0r
4E	.	8eL	.
.	.	8dJ	.
2F	2F	2c	.
2F	2F	[2d	.
=4	=4	=4	=4
1E	2.G	2d]	1r
.	.	2c#i	.
.	4A	.	.
[1D	2B-	[1d	1f
.	2B-	.	.
=5	=5	=5	=5
1D]	1A	1d]	2f
.	.	.	2f
1r	[1G	1r	2.g
.	.	.	4a
=6	=6	=6	=6
0r	2G]	2r	2b-
.	2.D	1d	2b-
.	.	.	1a
.	4E	.	.
.	2F	2c	.
=7	=7	=7	=7
2r	1G	1B-	1g
1G	.	.	.
.	1D	1A	2r
2F	.	.	[2a
=8	=8	=8	=8
1E	1r	0r	2a]
.	.	.	2g
1D	2r	.	1f
.	[2A	.	.
=9	=9	=9	=9
0r	2A]	1r	1e
.	2G	.	.
.	1F	1c	1a
=10	=10	=10	=10
1C	1E	2c	1g
.	.	2c	.
1F	1r	2.d	2f
.	.	.	4e
.	.	4e	4d
=11	=11	=11	=11
2F	0r	2f	1c
2F	.	2f	.
2.G	.	1e	1r
4A	.	.	.
=12	=12	=12	=12
2B-	0r	1d	1f
2B-	.	.	.
1A	.	1r	2f
.	.	.	2f
=13	=13	=13	=13
0G	0r	1.e	2.g
.	.	.	4a
.	.	.	2b-
.	.	2d	2b-
=14	=14	=14	=14
0r	1F	0c	1.a
.	2F	.	.
.	2F	.	4g
.	.	.	4f
=15	=15	=15	=15
1r	2.G	2r	2e
.	.	2.B-	1d
.	4A	.	.
1G	2B-	.	.
.	.	4A	.
.	2B-	2G	[2g
=16	=16	=16	=16
1D	1A	2d	2g]
.	.	1d	2f
1E	1G	.	1g
.	.	2c	.
=17	=17	=17	=17
2D	1.A	1d	0r
1F	.	.	.
.	.	1c	.
2E	2G	.	.
=18	=18	=18	=18
2D	2F	1d	1.a
1F	4E	.	.
.	4D	.	.
.	1C	2r	.
2E	.	2G	2g
=19	=19	=19	=19
2D	2.F	2.A	2f
1F	.	.	4e
.	4G	4B-	4d
.	4A	2c	2c
.	4B-	.	.
2E	2c	[2c	[2g
=20	=20	=20	=20
1D	4B-	2c]	4g]
.	4A	.	4f
.	4G	2B-	1f
.	4F	.	.
1C	1G	1c	.
.	.	.	2e
=21	=21	=21	=21
0F;	0F;	0c;	0f;
=22	=22	=22	=22
0r	1F	0r	0r
.	2G	.	.
.	2A	.	.
=23	=23	=23	=23
0r	1.B-	0r	1f
.	.	.	2g
.	2A	.	2a
=24	=24	=24	=24
0r	2G	0r	1b-
.	4F	.	.
.	4E	.	.
.	2D	.	1b-
.	[2d	.	.
=25	=25	=25	=25
0r	4d]	0r	1a
.	4c	.	.
.	2A	.	.
.	2B-	.	1g
.	2c	.	.
=26	=26	=26	=26
1r	1F	0r	0a
[1D	2r	.	.
.	2F	.	.
=27	=27	=27	=27
1D]	2A	1F	0r
.	2B-	.	.
2C	1c	2G	.
2C	.	2A	.
=28	=28	=28	=28
1.G	2d	1.B-	0r
.	2e	.	.
.	2d	.	.
2D	[2f	2B-	.
=29	=29	=29	=29
1F	4f]	1A	0r
.	4e	.	.
.	1d	.	.
1E	.	1G	.
.	2c#i	.	.
=30	=30	=30	=30
0D	1d	1A	0r
.	1A	2r	.
.	.	[2d	.
=31	=31	=31	=31
1G	2r	2d]	0r
.	1B-	2e	.
2G	.	2d	.
4G	4A	4c	.
4G	4G	4B-	.
=32	=32	=32	=32
1.A	1F	1c	0r
.	1r	2F	.
2G	.	[2B-	.
=33	=33	=33	=33
1F	1c	4B-]	0r
.	.	4A	.
.	.	1A	.
1E	2c	.	.
.	4c	2G	.
.	4c	.	.
=34	=34	=34	=34
2.D	1.d	0A	1f
4E	.	.	.
1F	.	.	2f
.	2c	.	4f
.	.	.	4f
=35	=35	=35	=35
0C	2.c	0r	1g
.	4B-	.	.
.	2A	.	2r
.	2G	.	2g
=36	=36	=36	=36
2r	1F	1c	2.a
2.F	.	.	.
.	.	.	4g
.	1r	2c	2f
4G	.	.	.
2A	.	4c	2e
.	.	4c	.
=37	=37	=37	=37
2B-	0r	1.d	1d
2G	.	.	.
2D	.	.	1r
[2F	.	2c	.
=38	=38	=38	=38
4F]	0r	2.c	1f
4G	.	.	.
2A	.	.	.
.	.	4B-	.
2.D	.	2A	2f
.	.	2G	2g
4E	.	.	.
=39	=39	=39	=39
1F	1c	1F	2.a
.	.	.	4b-
1A	2c	1r	2cc
.	2c	.	2cc
=40	=40	=40	=40
1G	2.d	1r	1b-
.	4e	.	.
1F	2f	1c	1a
.	2f	.	.
=41	=41	=41	=41
1C	1e	2c	1r
.	.	2c	.
1r	1d	2.d	1f
.	.	4e	.
=42	=42	=42	=42
1D	0r	2f	2f
.	.	2f	2f
1C	.	1e	2.g
.	.	.	4a
=43	=43	=43	=43
1G	1r	2.d	2b-
.	.	.	2b-
.	.	4e	.
[1c	1F	1f	[1a
=44	=44	=44	=44
1c]	2F	1r	2a]
.	2F	.	4g
.	.	.	4f
1r	2.G	2.B-	2e
.	.	.	[2d
.	4A	4c	.
=45	=45	=45	=45
1G	2B-	2d	2d]
.	2B-	2e	1g
1D	1A	1d	.
.	.	.	2f
=46	=46	=46	=46
2r	2G	2r	2g
1F	1A	1c	1f
2C	2G	2c	2e
=47	=47	=47	=47
1D	1F	1A	1d
[1AA	[1E	1A	[1c
=48	=48	=48	=48
1AA]	1E]	1r	1c]
1D	1r	[1F	1r
=49	=49	=49	=49
2F	0r	2F]	1.c
2E	.	2G	.
2F	.	2.A	.
2D	.	.	2d
.	.	4B-	.
=50	=50	=50	=50
1C	0r	2c	2.e
.	.	2c	.
.	.	.	4f
1G	.	1B-	2g
.	.	.	2g
=51	=51	=51	=51
1D	1.F	1.A	1f
1r	.	.	1d
.	2G	2B-	.
=52	=52	=52	=52
1F	2.A	1c	0r
.	4B-	.	.
2F	2c	2F	.
2F	2c	[2f	.
=53	=53	=53	=53
2G	1B-	2f]	0r
2D	.	4e	.
.	.	4d	.
1E	1G	2d	.
.	.	2c#i	.
=54	=54	=54	=54
2.D	1.A	1d	1f
4E	.	.	.
2F	.	2r	2f
2C	2G	2c	2g
=55	=55	=55	=55
2r	1F	2.c	2.a
2.c	.	.	.
.	.	4d	4b-
.	2r	2e	1cc
4B-	.	.	.
2A	2c	2f	.
=56	=56	=56	=56
1G	1d	2.g	1b-
.	.	4f	.
2r	2B-	2d	1g
[2C	[2c	[2e	.
=57	=57	=57	=57
2C]	2c]	4e]	1.a
.	.	4d	.
2.F	2A	1c	.
.	2F	.	.
4E	.	.	.
2C	2c	[2c	[2g
=58	=58	=58	=58
1D	4B-	2c]	4g]
.	4A	.	4f
.	4G	2B-	1f
.	4F	.	.
1C	1G	1c	.
.	.	.	2e
=59	=59	=59	=59
0Fl	0Fl	0cl	0fl
==	==	==	==
*-	*-	*-	*-
!!!RDF**kern: l=long note in original notation
!!!RDF**kern: i=editorial accidental
!!!ENC:	Megan K. Eagen 2013/11/29
!!!END:	2013/11/29/
!!!EED:	Jesse Rodin
!!!EEV:	2014/02/23/
!!!ONB:	Translated from MusicXML and edited on 2014/02/23/ by Craig Sapp
!!muse2ps: C^@{COM}^i2I150v85,85,85,150Q16
